X:1
T: Mangister Voe
C:Tom Anderson
R:Reel
Q: 232
K:A
M:4/4
L:1/8
|:ed|c2 e2 A3e|fd Af e3d|c2 A2 dc BA|c2 B2 B2 ed|
c2 e2 A3A|fd AF D3F|E2 A2 GB ed|c2 A2 A2:|
cd|e3c a3e|fd af e3d|c2 A2 dc BA|c2 B2 B2 cd|
e3c a3e|fd Af e3d|ce a3/2e1/2 d1/2B3/2 e3/2d1/2|c2 A2 A2 cd|
e3c a3e|fd af e3d|c2 A2 dc BA|c2 B2 B2 ed|
c2 e2 A3A|fd AF D3F|E2 A2 GB ed|c2 A2 A2||
